icons/wallet-outline.svg

<svg xmlns="http://www.w3.org/2000/svg" width="24" height="24" viewBox="0 0 24 24">
  <path d="M19,2 C20.5976809,2 21.9036609,3.24891996 21.9949073,4.82372721 L22,5 L22,19 C22,20.5976809 20.75108,21.9036609 19.1762728,21.9949073 L19,22 L5,22 C3.40231912,22 2.09633912,20.75108 2.00509269,19.1762728 L2,19 L2,5 C2,3.40231912 3.24891996,2.09633912 4.82372721,2.00509269 L5,2 L19,2 Z M19,4 L5,4 C4.48716416,4 4.06449284,4.38604019 4.00672773,4.88337887 L4,5 L4,19 C4,19.5128358 4.38604019,19.9355072 4.88337887,19.9932723 L5,20 L19,20 C19.5128358,20 19.9355072,19.6139598 19.9932723,19.1166211 L20,19 L20.0009007,17.8289758 C19.750474,17.9175793 19.4847757,17.9738727 19.2088157,17.9928459 L19,18 L15,18 C13.4023191,18 12.0963391,16.75108 12.0050927,15.1762728 L12,15 L12,9 C12,7.40231912 13.24892,6.09633912 14.8237272,6.00509269 L15,6 L19,6 C19.350972,6 19.6878673,6.06026977 20.0009007,6.17102423 L20,5 C20,4.44771525 19.5522847,4 19,4 Z M19,8 L15,8 C14.4871642,8 14.0644928,8.38604019 14.0067277,8.88337887 L14,9 L14,15 C14,15.5128358 14.3860402,15.9355072 14.8833789,15.9932723 L15,16 L19,16 C19.5128358,16 19.9355072,15.6139598 19.9932723,15.1166211 L20,15 L20,9 C20,8.44771525 19.5522847,8 19,8 Z M17.5,10.5 C18.3284271,10.5 19,11.1715729 19,12 C19,12.8284271 18.3284271,13.5 17.5,13.5 C16.6715729,13.5 16,12.8284271 16,12 C16,11.1715729 16.6715729,10.5 17.5,10.5 Z"/>
</svg>

<svg xmlns="http://www.w3.org/2000/svg" viewBox="0 0 24 24">
  <path d="M19 2a3 3 0 0 1 3 2.82V19a3 3 0 0 1-2.82 3H5a3 3 0 0 1-3-2.82V5a3 3 0 0 1 2.82-3H19zm0 2H5a1 1 0 0 0-1 .88V19a1 1 0 0 0 .88 1H19a1 1 0 0 0 1-.88v-1.29c-.25.09-.52.14-.8.16L19 18h-4a3 3 0 0 1-3-2.82V9a3 3 0 0 1 2.82-3H19a3 3 0 0 1 1 .17V5a1 1 0 0 0-1-1zm0 4h-4a1 1 0 0 0-1 .88V15a1 1 0 0 0 .88 1H19a1 1 0 0 0 1-.88V9a1 1 0 0 0-1-1zm-1.5 2.5a1.5 1.5 0 1 1 0 3 1.5 1.5 0 0 1 0-3z"/>
</svg>
